!!!COM: Samuel Scheidt
!!!OPR: Tabulatura nova
!!!OTL: 12. Canon a 3 Voc. in unisono. Cantio sacra
!!!YOR: S. Scheidt, Werke, edited by G. Harms and C. Mahrenholz
!!!YOR: Vol. VI/1, Hamburg (1923-1962).
**kern	**kern	**kern
*CF	*conseq	*guida
*k[]	*k[]	*k[]
*M4/2	*M4/2	*M4/2
*Trd7c12	*	*
!4'stop	!	!
=1	=1	=1
1r	2r	2ee
.	2ee	4ee
.	.	4.cc
1A	4ee	.
.	.	8dd
.	4.cc	4ee
.	.	4.cc
.	8dd	.
.	4ee	.
.	.	8b
=2	=2	=2
1A	4.cc	4a
.	.	4a
.	8b	.
.	4a	4cc
.	4a	4.a
1F	4cc	.
.	.	8g
.	4.a	8f
.	.	8e
.	.	4.d
.	8g	.
.	8f	.
.	8e	8c
=3	=3	=3
1G	4.d	4B
.	.	4g
.	8c	.
.	4B	2e
.	4g	.
1A	2e	4r
.	.	4cc
.	4r	4a
.	4cc	[4f
=4	=4	=4
1F	4a	8f]
.	.	8g
.	4.f	8a
.	.	8b
.	.	2cc
.	8g	.
.	8a	.
.	8b	.
1E	2cc	4r
.	.	4g
.	4r	4b
.	4g	4cc
=5	=5	=5
1D	4b	2dd
.	4cc	.
.	2dd	8r
.	.	8a
.	.	8a
.	.	8f
1A	8r	4cc
.	8a	.
.	8a	4a
.	8f	.
.	4cc	4.f
.	4a	.
.	.	8g
=6	=6	=6
1A	4.f	2a
.	8g	.
.	2a	4e
.	.	4f
1G	4e	4g
.	4f	4f
.	4g	4e
.	4f	4d
=7	=7	=7
1c	4e	4c
.	4d	4d
.	4c	4e
.	4d	8f
.	.	8g
1A	4e	4a
.	8f	4b
.	8g	.
.	4a	4cc
.	4b	4b
=8	=8	=8
1F	4cc	2a
.	4b	.
.	2a	4r
.	.	4dd
1G	4r	2b
.	4dd	.
.	2b	4r
.	.	4ee
=9	=9	=9
1A	4r	4cc
.	4ee	4a
.	4cc	4r
.	4a	4a
1A	4r	4.cc
.	4a	.
.	.	8dd
.	4.cc	2ee
.	8dd	.
=10	=10	=10
1c	2ee	4r
.	.	4cc
.	4r	4a
.	4cc	4g
1d	4a	4f
.	4g	4g
.	4f	[2a
.	4g	.
=11	=11	=11
1f	2.a	4a]
.	.	4b
.	.	4cc
.	4b	4dd
1e	4cc	4ee
.	4dd	8dd
.	.	8cc
.	4ee	4b
.	8dd	4cc
.	8cc	.
=12	=12	=12
1d	4b	4dd
.	4cc	8cc
.	.	8b
.	4dd	2a
.	8cc	.
.	8b	.
1c#	2a	4r
.	.	4a
.	4r	4a
.	4a	4a
=13	=13	=13
1d	4a	4f
.	4a	4.d
.	4f	.
.	.	8e
.	4.d	8f
.	.	8g
1d	.	2a
.	8e	.
.	8f	.
.	8g	.
.	2a	4r
.	.	4a
=14	=14	=14
1e	4r	4g
.	4a	4a
.	4g	4b
.	4a	8a
.	.	8g
1d	4b	4f#
.	8a	4g
.	8g	.
.	4f#	4a
.	4g	8g
.	.	8fn
=15	=15	=15
1c	4a	4e
.	8g	4f
.	8f	.
.	4e	4g
.	4f	8f
.	.	8e
1B	4g	2d
.	8f	.
.	8e	.
.	2d	4r
.	.	4dd
=16	=16	=16
1A	4r	4cc
.	4dd	4dd
.	4cc	4ee
.	4dd	8dd
.	.	8cc
1G#	4ee	2b
.	8dd	.
.	8cc	.
.	2b	4ee
.	.	4dd
=17	=17	=17
1A	4ee	4cc
.	4dd	4b
.	4cc	4a
.	4b	4g
1d	4a	4f
.	4g	4g
.	4f	4a
.	4g	4b
=18	=18	=18
1c	4a	2cc
.	4b	.
.	2cc	4r
.	.	4g
1B	4r	4g
.	4g	4g
.	4g	2g
.	4g	.
=19	=19	=19
1c	2g	4r
.	.	4g#
.	4r	4a
.	4g#	4b
1A	4a	4cc
.	4b	4dd
.	4cc	2ee
.	4dd	.
=20	=20	=20
1A	2ee	4cc
.	.	4a
.	4cc	2r
.	4a	.
1G	2r	4b-
.	.	4g
.	4b-	2r
.	4g	.
=21	=21	=21
1F	2r	4a
.	.	4f
.	4a	4cc
.	4f	4a
1A	4cc	4a
.	4a	4f
.	4a	4r
.	4f	4f
=22	=22	=22
1B-	4r	4.d
.	4f	.
.	.	8e
.	4.d	4f
.	.	4g
.	8e	.
1A	4f	4a
.	4g	4b
.	4a	4cc
.	4b	4b
=23	=23	=23
1F	4cc	2a
.	4b	.
.	2a	4r
.	.	4d
1G	4r	4.B
.	4d	.
.	.	8c
.	4.B	2d
.	8c	.
=24	=24	=24
1F	2d	4r
.	.	4d
.	4r	4c
.	4d	4d
1E	4c	4e
.	4d	8d
.	.	8c
.	4e	4B
.	8d	4c
.	8c	.
=25	=25	=25
0D	4B	4d
.	4c	4e
.	4d	4f#
.	4e	4g
.	1f#	1a
==	==	==
*-	*-	*-
!!!CDT: 1587///-1654/3/30
!!!OCY: Deutschland
!!!ODT: 1624
!!!AFR: cantus firmus canon
!!!AST: polyphony
!!!AMT: simple quadruple
!!!AIN: vox
!!!YEP: David Huron and Denis Collins
!!!YEN: Canada
!!!EEV: 1.0
!!!RDT: 1995 April 29
!!!YED: 1995 August 31
